assets/svg/1f1f5-1f1f0.svg

<svg xmlns="http://www.w3.org/2000/svg" viewBox="0 0 64 64" enable-background="new 0 0 64 64"><path fill="#f9f9f9" d="M17,58V6C8.036,11.192,2,20.889,2,32S8.036,52.808,17,58z"/><path fill="#699635" d="m32 2c-5.466 0-10.586 1.469-15 4.02v51.953c4.414 2.555 9.534 4.02 15 4.02 16.568 0 30-13.432 30-30s-13.432-30-30-30"/><g fill="#fff"><path d="m38 38.13c-6.074 0-11-4.82-11-10.767 0-2.851 1.14-5.435 2.987-7.36-4.15 2.125-6.987 6.373-6.987 11.275 0 7.03 5.82 12.725 13 12.725s13-5.696 13-12.725c0-.691-.071-1.363-.18-2.024-.915 5.04-5.405 8.876-10.82 8.876"/><path d="m40 19.876l2.472-1.876-.934 3.05 2.462 1.893-3.05.011-.95 3.046-.95-3.046-3.05-.011 2.462-1.893-.934-3.05z"/></g></svg>

<svg xmlns="http://www.w3.org/2000/svg" width="64" height="64" viewBox="0 0 64 64"><path fill="#F9F9F9" d="M17 58V6C8.036 11.192 2 20.889 2 32s6.036 20.808 15 26z"/><path fill="#699635" d="M32 2a29.854 29.854 0 0 0-15 4.023v51.953A29.844 29.844 0 0 0 32 62c16.568 0 30-13.432 30-30S48.568 2 32 2z"/><path fill="#FFF" d="M38 38.127c-6.074 0-11-4.82-11-10.767 0-2.851 1.14-5.435 2.987-7.36C25.837 22.125 23 26.373 23 31.275 23 38.304 28.82 44 36 44s13-5.696 13-12.725c0-.691-.071-1.363-.18-2.024-.915 5.042-5.405 8.876-10.82 8.876z"/><path fill="#FFF" d="M40 19.876L42.472 18l-.934 3.053L44 22.943l-3.05.011L40 26l-.95-3.046-3.05-.011 2.462-1.89L37.528 18z"/></svg>
